X: 28534
T: Munster, The
R: reel
M: 4/4
K: Dmajor
|:de|f2ed cAAG|AB (3cBA dcde|(3fgf ed cAAG|EFGE D2:|
|:ef|gfed (3Bcd ed|eaag eaaf|g2 ed (3Bcd ed|eage d2:|

